images/svg/spiral.svg

<svg width="202" height="317" viewBox="0 0 202 317" fill="none" xmlns="http://www.w3.org/2000/svg">
<path d="M55.7623 171.883C69.605 145.849 87.4522 125.133 105.094 112.678C122.763 100.205 140.088 96.1011 152.999 102.966C165.91 109.831 172.196 126.488 171.735 148.111C171.275 169.702 164.08 196.082 150.238 222.117C136.395 248.151 118.548 268.867 100.905 281.322C83.237 293.795 65.9123 297.899 53.0012 291.034C40.0902 284.169 33.8042 267.512 34.2652 245.889C34.7254 224.298 41.9195 197.918 55.7623 171.883Z" stroke="#44FFA1"/>
<path d="M19.7623 152.883C33.605 126.849 51.4522 106.133 69.0945 93.6781C86.763 81.2045 104.088 77.1011 116.999 83.9661C129.91 90.831 136.196 107.488 135.735 129.111C135.275 150.702 128.08 177.082 114.238 203.117C100.395 229.151 82.5478 249.867 64.9054 262.322C47.237 274.795 29.9123 278.899 17.0012 272.034C4.09015 265.169 -2.19576 248.512 -1.73483 226.889C-1.27459 205.298 5.91953 178.918 19.7623 152.883Z" stroke="#44FFA1"/>
<path opacity="0.75" d="M-14.3548 134.353C-0.511414 108.317 17.2379 87.548 34.7219 75.0079C52.2342 62.4474 69.3358 58.2331 81.9987 64.9661C94.6616 71.6991 100.731 88.2335 100.111 109.776C99.4912 131.283 92.1981 157.612 78.3547 183.647C64.5114 209.683 46.762 230.452 29.2781 242.992C11.7658 255.553 -5.33581 259.767 -17.9987 253.034C-30.6617 246.301 -36.7309 229.766 -36.1106 208.224C-35.4912 186.717 -28.1981 160.388 -14.3548 134.353Z" stroke="#44FFA1"/>
<path opacity="0.5" d="M-51.2377 113.883C-37.395 87.8488 -19.5478 67.1331 -1.90551 54.6781C15.763 42.2045 33.0876 38.1011 45.9987 44.9661C58.9098 51.831 65.1957 68.4884 64.7348 90.1113C64.2745 111.702 57.0804 138.082 43.2377 164.117C29.3949 190.151 11.5478 210.867 -6.09455 223.322C-23.763 235.795 -41.0877 239.899 -53.9988 233.034C-66.9098 226.169 -73.1958 209.512 -72.7348 187.889C-72.2746 166.298 -65.0805 139.918 -51.2377 113.883Z" stroke="#44FFA1"/>
<path opacity="0.25" d="M-87.3548 95.3527C-73.5114 69.3172 -55.7621 48.548 -38.2781 36.0079C-20.7658 23.4474 -3.66423 19.2331 8.9987 25.9661C21.6616 32.6991 27.7309 49.2335 27.1105 70.7756C26.4912 92.2829 19.1981 118.612 5.35473 144.647C-8.48862 170.683 -26.238 191.452 -43.7219 203.992C-61.2342 216.553 -78.3358 220.767 -90.9987 214.034C-103.662 207.301 -109.731 190.766 -109.111 169.224C-108.491 147.717 -101.198 121.388 -87.3548 95.3527Z" stroke="#44FFA1"/>
</svg>

<svg xmlns="http://www.w3.org/2000/svg" width="202" height="317" fill="none"><path stroke="#44FFA1" d="M55.762 171.883c13.843-26.034 31.69-46.75 49.332-59.205 17.669-12.473 34.994-16.577 47.905-9.712 12.911 6.865 19.197 23.522 18.736 45.145-.46 21.591-7.655 47.971-21.497 74.006-13.843 26.034-31.69 46.75-49.333 59.205-17.668 12.473-34.993 16.577-47.904 9.712-12.91-6.865-19.197-23.522-18.736-45.145.46-21.591 7.654-47.971 21.497-74.006Z"/><path stroke="#44FFA1" d="M19.762 152.883c13.843-26.034 31.69-46.75 49.332-59.205C86.763 81.204 104.088 77.101 117 83.966c12.911 6.865 19.197 23.522 18.736 45.145-.46 21.591-7.655 47.971-21.497 74.006-13.843 26.034-31.69 46.75-49.333 59.205-17.668 12.473-34.993 16.577-47.904 9.712-12.91-6.865-19.197-23.522-18.736-45.145.46-21.591 7.655-47.971 21.497-74.006Z"/><path stroke="#44FFA1" d="M-14.355 134.353C-.51 108.317 17.238 87.548 34.722 75.008c17.512-12.56 34.614-16.775 47.277-10.042 12.663 6.733 18.732 23.268 18.112 44.81-.62 21.507-7.913 47.836-21.756 73.871-13.844 26.036-31.593 46.805-49.077 59.345-17.512 12.561-34.614 16.775-47.277 10.042-12.663-6.733-18.732-23.268-18.112-44.81.62-21.507 7.913-47.836 21.756-73.871Z" opacity=".75"/><path stroke="#44FFA1" d="M-51.238 113.883c13.843-26.034 31.69-46.75 49.332-59.205C15.763 42.205 33.088 38.101 46 44.966c12.91 6.865 19.197 23.522 18.736 45.145-.46 21.591-7.655 47.971-21.497 74.006-13.843 26.034-31.69 46.75-49.333 59.205-17.668 12.473-34.993 16.577-47.904 9.712-12.91-6.865-19.197-23.522-18.736-45.145.46-21.591 7.654-47.971 21.497-74.006Z" opacity=".5"/><path stroke="#44FFA1" d="M-87.355 95.353c13.844-26.036 31.593-46.805 49.077-59.345 17.512-12.56 34.614-16.775 47.277-10.042C21.662 32.7 27.73 49.233 27.11 70.776c-.619 21.507-7.912 47.836-21.755 73.871-13.844 26.036-31.593 46.805-49.077 59.345-17.512 12.561-34.614 16.775-47.277 10.042-12.663-6.733-18.732-23.268-18.112-44.81.62-21.507 7.913-47.836 21.756-73.871Z" opacity=".25"/></svg>
